X:1
T:O Do Some Good Deed Every Day
T:O Do Some Good Deed Every Day
T:Samuel W. Beazley
T:Eben Eugene Rexford, 1911
T:Public Domain Courtesy of the Cyber Hymnal™
T:Public Domain Courtesy of the Cyber Hymnal™
C:Samuel W. Beazley
Z:Public Domain
Z:Courtesy of the Cyber Hymnal™
%%score ( 1 2 ) ( 3 4 )
L:1/8
Q:1/4=110
M:4/4
K:G
V:1 treble 
V:2 treble 
V:3 bass 
V:4 bass 
V:1
 [B,D]2 | [DB]3 [DB] [^C^A][DB][E^c][DB] | A6 [CD]2 | [CA]3 [CA] [B,^G][CA][DB][CA] | G6 [=FG]2 | %5
w: 1.~O|do some good deed ev- ery|day, And|speak kind words a- long the|way; O|
w: 2.~O|help a bro- ther bear his|load O’er|life’s up- hill and drear- y|road; With|
w: 3.~O|seek, and you will al- ways|find The|sheaves of good to reap and|bind; There’s|
 [EG]3 [^DF] [EG][DF][EA][_EG] | B6 [DB]2 | [E^c]3 [Ec] [Ec][GB][GA][Ge] | d6 ||"^Refrain" [Fd]2 | %10
w: sing a glad and cheer- ful|song, For|it may make some weak heart|strong.||
w: those who need, share ev- ’ry|day The|bless- ings God has sent your|way.||
w: some- thing you can do or|say For|Christ the Mas- ter’s sake each|day.||
 [Gd]3 [DG] [DF][Fc][FB][FA] | G6 [GB]2 | [Gd]3 [GB] [Ac][Ac][GB][GB] | A6 d2 | %14
w: ||||
w: ||||
w: ||||
 [Gd]3 [Gd] [=Fd][FB][FA][FG] | e6 [Ac]2 | [GB]3 [GB] [GB][DG][FA][DA] | G6 |] %18
w: ||||
w: ||||
w: ||||
V:2
 x2 | x8 | (D2 ^CC =C2) x2 | x8 | (B,2 CC B,2) x2 | x8 | (D2 DD D2) x2 | x8 | (F2 GG A2) || x2 | %10
 x8 | (G2 EE D2) x2 | x8 | (F2 GG F2) (GF) | x8 | (E2 ^GG A2) x2 | x8 | (D2 EE D2) |] %18
V:3
 [G,,G,]2 | [G,,G,]3 [G,,G,] [G,,G,][G,,G,][G,,G,][G,,G,] | %2
w: ~|~ ~ ~ ~ ~ ~|
 ([D,F,]2 [E,G,][E,G,] [D,F,]2) [D,F,]2 | [D,F,]3 [D,F,] [D,^E,][D,F,][D,G,][D,F,] | %4
w: ~ * * * ~|~ ~ ~ ~ ~ ~|
 (G,2 E,E, D,2) [B,,G,]2 | [C,G,]3 [C,C] [C,C][C,C][C,C][C,G,] | ([G,,G,]2 [B,,G,][D,G,] G,2) G,2 | %7
w: ~ * * * ~|~ ~ ~ ~ ~ ~|~ * * * ~|
 [E,G,]3 [E,G,] [A,,A,][A,,A,][A,,A,][A,,A,] | (A,2 B,B, C2) || [D,C]2 | %10
w: ~ ~ ~ ~ ~ ~|~ * * *|O|
 [G,B,]3 [G,B,] [D,A,][D,E][D,D][D,C] | ([G,B,]2 [G,C][G,C] [G,B,]2) [G,D]2 | %12
w: do some good deed ev- ery|day, * * * Then|
 [G,B,]3 [G,D] [F,D][F,D][G,D][G,D] | ([D,D]2 [E,^C] [E,C] D2) ([B,,D][A,,C]) | %14
w: will the lov- ing Mas- ter|say: * * * “Your *|
 [G,,B,]3 [G,B,] [G,B,][G,D][B,,D][B,,D] | ([C,C]2 [B,,D][B,,D] [A,,C]2) [C,E]2 | %16
w: deeds wrought in My name shall|be * * * Re-|
 [D,D]3 [D,D] [D,D][D,B,][D,C][D,C] | (B,2 CC B,2) |] %18
w: cord- ed as done un- to|Me.” * * *|
V:4
 x2 | x8 | x8 | x8 | G,,6 x2 | x8 | x4 G,2 (G,=F,) | x8 | D,6 || x2 | x8 | x8 | x8 | %13
 x4 (D,^C,) x2 | x8 | x8 | x8 | G,,6 |] %18

